src/assets/icons/filters/categories/t-shirt_stroke.svg

<svg width="48" height="45" viewBox="0 0 48 45" fill="none" xmlns="http://www.w3.org/2000/svg">
<path fill-rule="evenodd" clip-rule="evenodd" d="M45.0008 20.6951C45.0008 20.7616 44.9729 20.8189 44.9203 20.8607C44.8953 20.8813 44.8662 20.8962 44.8349 20.9042C44.8035 20.9122 44.7709 20.9132 44.7391 20.9072L41.3481 20.2398C41.0685 20.1875 40.7832 20.1724 40.4996 20.1949V16.852C40.4959 16.4577 40.3361 16.081 40.0551 15.8044C39.7742 15.5278 39.395 15.3739 39.0008 15.3764C38.6062 15.3735 38.2267 15.5272 37.9454 15.8039C37.6641 16.0805 37.5041 16.4574 37.5004 16.852V34.5686H10.4996V16.852C10.4959 16.4577 10.3361 16.081 10.0551 15.8044C9.77419 15.5278 9.39503 15.3739 9.00077 15.3764C8.60625 15.3735 8.2267 15.5272 7.94541 15.8039C7.66412 16.0805 7.50407 16.4574 7.50039 16.852V20.1965C7.42761 20.1903 7.35794 20.1779 7.28516 20.1779C7.07204 20.1778 6.85941 20.1985 6.65032 20.2398L3.26245 20.9056C3.23093 20.9123 3.19832 20.9119 3.16698 20.9044C3.13564 20.8969 3.10637 20.8825 3.08129 20.8623C3.05581 20.8426 3.03527 20.8172 3.02129 20.7882C3.00732 20.7592 3.00029 20.7273 3.00077 20.6951V9.0419C3.00077 8.95984 3.04723 8.88706 3.12155 8.8499L15.0596 2.97532C15.0827 2.9625 15.1084 2.95527 15.1347 2.95419C15.1611 2.95312 15.1873 2.95823 15.2114 2.96913C15.2501 2.98461 15.3414 3.03725 15.3817 3.17351C16.5166 6.88345 20.0609 9.47235 24 9.47235C27.9391 9.47235 31.4834 6.88345 32.6199 3.17351C32.631 3.12879 32.6521 3.08717 32.6816 3.05177C32.7111 3.01637 32.7482 2.98812 32.7902 2.96913C32.8144 2.95785 32.8409 2.95253 32.8676 2.95361C32.8943 2.95468 32.9203 2.96213 32.9435 2.97532L44.8815 8.85145C44.9543 8.88706 45.0008 8.95983 45.0008 9.04345V20.6966V20.6951ZM37.2821 41.9498H10.7195C10.6909 41.9502 10.6625 41.9449 10.6359 41.9343C10.6094 41.9237 10.5852 41.9079 10.5647 41.8879C10.5443 41.8679 10.528 41.8441 10.5169 41.8177C10.5057 41.7914 10.4998 41.7631 10.4996 41.7345V37.5229H37.5019V41.7345C37.5019 41.7631 37.4963 41.7915 37.4853 41.8179C37.4743 41.8443 37.4582 41.8682 37.4379 41.8884C37.4176 41.9085 37.3935 41.9245 37.367 41.9353C37.3406 41.9461 37.3122 41.9515 37.2836 41.9513L37.2821 41.9498ZM46.2194 6.20835L34.2828 0.332223H34.2813C33.8658 0.127328 33.411 0.014483 32.9479 0.00138942C32.4848 -0.0117042 32.0243 0.0752616 31.5979 0.256352C31.1572 0.443806 30.763 0.725639 30.443 1.08199C30.1231 1.43834 29.8852 1.86053 29.7461 2.3188C28.9874 4.79313 26.6261 6.51803 23.9985 6.51803C21.3724 6.51803 19.0095 4.79313 18.2524 2.3188C18.1133 1.86053 17.8754 1.43834 17.5554 1.08199C17.2355 0.725639 16.8412 0.443806 16.4005 0.256352C15.9739 0.0749667 15.513 -0.0120266 15.0496 0.00133626C14.5862 0.0146991 14.1311 0.128101 13.7156 0.33377L1.78065 6.20526C1.24686 6.46203 0.7965 6.8644 0.481458 7.366C0.166415 7.86761 -0.00048202 8.44802 1.04566e-06 9.04035V20.6951C1.04566e-06 21.6473 0.428905 22.5407 1.17678 23.1446C1.92619 23.7485 2.89858 23.9885 3.85084 23.8011L7.23871 23.1353C7.2706 23.1291 7.30345 23.13 7.335 23.1377C7.36654 23.1455 7.39603 23.16 7.42142 23.1802C7.44659 23.1998 7.46683 23.2249 7.48055 23.2537C7.49426 23.2825 7.50105 23.314 7.50039 23.3459V41.7361C7.50039 43.4827 8.94503 44.9025 10.7195 44.9025H37.2821C39.0565 44.9025 40.4996 43.4827 40.4996 41.7345V23.3459C40.4996 23.2793 40.5275 23.222 40.5801 23.1802C40.6049 23.1594 40.6341 23.1445 40.6654 23.1365C40.6968 23.1284 40.7295 23.1275 40.7613 23.1338L44.1523 23.8011C44.6184 23.8936 45.0991 23.8828 45.5606 23.7693C46.0221 23.6559 46.4531 23.4427 46.8232 23.1446C47.5711 22.5407 48 21.6473 48 20.6951V9.0419C48 7.83416 47.3187 6.74719 46.2209 6.20835H46.2194Z" fill="black"/>
</svg>

<svg width="48" height="45" viewBox="0 0 48 45" fill="none" xmlns="http://www.w3.org/2000/svg"><path fill-rule="evenodd" clip-rule="evenodd" d="M45 20.695a.205.205 0 01-.08.166.22.22 0 01-.18.046l-3.392-.667a3.227 3.227 0 00-.848-.045v-3.343a1.49 1.49 0 00-1.5-1.476 1.49 1.49 0 00-1.5 1.476v17.717h-27V16.852A1.49 1.49 0 009 15.376a1.49 1.49 0 00-1.5 1.476v3.345c-.072-.007-.142-.02-.215-.02-.213 0-.426.021-.635.063l-3.388.666a.217.217 0 01-.261-.21V9.041c0-.082.046-.155.12-.192L15.06 2.975a.169.169 0 01.151-.006c.04.016.13.068.17.205 1.136 3.71 4.68 6.298 8.619 6.298 3.94 0 7.483-2.589 8.62-6.298a.305.305 0 01.17-.205.167.167 0 01.154.006l11.938 5.876c.072.036.119.109.119.192v11.654-.002zM37.283 41.95H10.72a.218.218 0 01-.22-.216v-4.211h27.002v4.211a.217.217 0 01-.218.217l-.002-.001zM46.22 6.208L34.283.332h-.002a3.22 3.22 0 00-2.683-.076 3.275 3.275 0 00-1.852 2.063c-.759 2.474-3.12 4.199-5.747 4.199s-4.99-1.725-5.747-4.2A3.275 3.275 0 0016.401.257a3.216 3.216 0 00-2.685.078L1.78 6.205A3.143 3.143 0 000 9.04v11.655c0 .952.429 1.846 1.177 2.45.75.604 1.722.843 2.674.656l3.388-.666a.225.225 0 01.242.119c.013.028.02.06.02.092v18.39c0 1.747 1.444 3.167 3.218 3.167h26.563c1.775 0 3.218-1.42 3.218-3.169V23.346c0-.067.028-.124.08-.166a.216.216 0 01.181-.046l3.391.667a3.249 3.249 0 002.671-.656A3.139 3.139 0 0048 20.695V9.042a3.144 3.144 0 00-1.78-2.834z" fill="#000"/></svg>
